src/icons/smart-shield.svg

<svg width="65" height="65" viewBox="0 0 65 65" xmlns="http://www.w3.org/2000/svg">
<path fill-rule="evenodd" clip-rule="evenodd" d="M34.2379 5.23438L31.2588 5.23624L30.1093 6.52077C25.9191 10.6447 20.5204 13.3224 14.7005 14.1624L13.3281 14.3629L11.6172 16.3419V30.4829C11.6172 40.3345 16.3805 47.6482 21.1172 52.4751C25.8425 57.2903 30.6623 59.7626 31.1437 60.0027L31.8538 60.3582L33.6416 60.3597L34.3577 60.0027C34.8359 59.7642 39.6571 57.2922 44.3842 52.4751C49.1209 47.6482 53.8842 40.3345 53.8842 30.4829V16.3459L52.1733 14.3669L50.8043 14.1669L50.8012 14.1665C44.9804 13.3253 39.5812 10.6459 35.3913 6.52008L34.2379 5.23438ZM15.6172 18.0696C22.0734 17.0648 28.0599 14.0821 32.7506 9.53237C37.4409 14.0836 43.4275 17.0676 49.8842 18.0735V30.4829C49.8842 38.9433 45.814 45.3071 41.5292 49.6735C37.6317 53.6451 33.6568 55.8548 32.7507 56.3314C31.8446 55.8548 27.8697 53.6451 23.9722 49.6735C19.6874 45.3071 15.6172 38.9433 15.6172 30.4829V18.0696ZM19.2296 32.4012C19.2296 25.0145 25.2177 19.0263 32.6045 19.0262H32.6046C39.9914 19.0262 45.9796 25.0144 45.9796 32.4012C45.9796 39.788 39.9914 45.7762 32.6046 45.7762C25.2178 45.7762 19.2296 39.788 19.2296 32.4012ZM26.5301 31.3006C26.6505 28.057 27.2982 25.1407 28.285 22.9655C25.0287 24.4586 22.6788 27.5877 22.2873 31.3006H26.5301ZM26.5707 34.3006H22.4031C23.0247 37.6603 25.2651 40.4522 28.285 41.837C27.3799 39.8419 26.7601 37.2233 26.5707 34.3006ZM29.5776 34.3006L35.6313 34.3006C35.4465 36.8543 34.9001 39.0448 34.1845 40.6151C33.4043 42.3271 32.759 42.683 32.6044 42.7567C32.4494 42.6827 31.8041 42.3262 31.0244 40.6151C30.3088 39.0448 29.7624 36.8543 29.5776 34.3006ZM35.6766 31.3006L29.5323 31.3006C29.6519 28.405 30.2352 25.9191 31.0244 24.1874C31.8048 22.4748 32.4501 22.1184 32.6044 22.0448C32.7583 22.1181 33.4037 22.4739 34.1845 24.1874C34.9736 25.9191 35.557 28.405 35.6766 31.3006ZM38.6382 34.3006C38.4489 37.2234 37.829 39.842 36.9239 41.8371C39.944 40.4524 42.1845 37.6604 42.8061 34.3006H38.6382ZM42.9219 31.3006H38.6788C38.5584 28.0569 37.9107 25.1406 36.9239 22.9653C40.1803 24.4584 42.5304 27.5876 42.9219 31.3006Z" />
</svg>

<svg xmlns="http://www.w3.org/2000/svg" width="65" height="65" viewBox="0 0 65 65"><path fill-rule="evenodd" d="m34.238 5.234-2.98.002-1.149 1.285A27.6 27.6 0 0 1 14.7 14.162l-1.372.2-1.71 1.98v14.14c0 9.853 4.763 17.166 9.5 21.993 4.725 4.815 9.544 7.288 10.026 7.528l.71.355 1.788.002.716-.357c.478-.239 5.3-2.71 10.026-7.528 4.737-4.827 9.5-12.14 9.5-21.992V16.346l-1.71-1.98-1.37-.2h-.003a27.6 27.6 0 0 1-15.41-7.646zM15.618 18.07A31.6 31.6 0 0 0 32.75 9.532a31.6 31.6 0 0 0 17.133 8.542v12.409c0 8.46-4.07 14.824-8.355 19.19-3.897 3.972-7.872 6.182-8.778 6.658-.906-.476-4.881-2.686-8.779-6.658-4.285-4.366-8.355-10.73-8.355-19.19zM19.23 32.4c0-7.387 5.988-13.375 13.375-13.375S45.98 25.014 45.98 32.401s-5.99 13.375-13.375 13.375S19.23 39.788 19.23 32.401m7.3-1.1c.12-3.244.768-6.16 1.755-8.335a10.38 10.38 0 0 0-5.998 8.335zm.04 3h-4.167a10.39 10.39 0 0 0 5.882 7.536c-.905-1.995-1.525-4.614-1.714-7.536m3.008 0h6.053c-.184 2.553-.73 4.744-1.447 6.314-.78 1.712-1.425 2.068-1.58 2.142-.155-.074-.8-.43-1.58-2.142-.715-1.57-1.262-3.76-1.446-6.314m6.099-3h-6.145c.12-2.896.703-5.382 1.492-7.114.78-1.712 1.426-2.069 1.58-2.142.154.073.8.429 1.58 2.142.79 1.732 1.373 4.218 1.493 7.114m2.961 3c-.19 2.922-.809 5.541-1.714 7.536a10.39 10.39 0 0 0 5.882-7.536zm4.284-3H38.68c-.12-3.244-.768-6.16-1.755-8.336a10.38 10.38 0 0 1 5.998 8.336" clip-rule="evenodd"/></svg>
